src/assets/revenue-icon.svg

<svg width="23" height="28" viewBox="0 0 23 28" fill="none" xmlns="http://www.w3.org/2000/svg">
<path d="M11.264 16.8719H11.3254C12.6413 16.9069 13.6941 17.9758 13.6941 19.29C13.6941 20.4114 12.9308 21.3489 11.8957 21.6292V22.6105C11.8957 22.9609 11.6149 23.2413 11.264 23.2413C10.9131 23.2413 10.6324 22.9609 10.6324 22.6105V21.6292C10.1169 21.4908 9.66146 21.1867 9.33639 20.7639C9.01133 20.341 8.83476 19.8231 8.83398 19.29C8.83398 18.9395 9.11471 18.6592 9.46562 18.6592C9.81653 18.6592 10.0973 18.9395 10.0973 19.29C10.0973 19.9383 10.6148 20.4552 11.2552 20.4552C11.8957 20.4552 12.422 19.9296 12.422 19.29C12.422 18.6504 11.8957 18.1247 11.2552 18.1247H11.1938C10.5627 18.1076 9.9632 17.8455 9.52255 17.394C9.08191 16.9425 8.83489 16.3372 8.83398 15.7067C8.83398 14.5852 9.59721 13.6478 10.6324 13.3674V12.3862C10.6324 12.0357 10.9131 11.7554 11.264 11.7554C11.6149 11.7554 11.8957 12.0357 11.8957 12.3862V13.3674C12.9308 13.6478 13.6941 14.5852 13.6941 15.7067C13.6941 16.0571 13.4133 16.3375 13.0624 16.3375C12.7115 16.3375 12.4308 16.0571 12.4308 15.7067C12.4308 15.0671 11.9044 14.5414 11.264 14.5414C10.6236 14.5414 10.0973 15.0671 10.0973 15.7067C10.0973 16.3462 10.6236 16.8719 11.264 16.8719Z" fill="#240000"/>
<path d="M6.6076 4.39152L9.05167 7.24767L8.78761 7.54205C3.75735 8.66873 0 13.1553 0 18.5189C0 23.2342 3.83191 27.0611 8.55338 27.0611H13.9661C18.6876 27.0611 22.5195 23.2351 22.5195 18.5198C22.5283 13.1553 18.7709 8.66873 13.7407 7.54205C13.7611 7.35691 13.7276 7.16981 13.6442 7.00323L15.7233 4.62632L15.8575 4.41956C16.0143 4.07816 16.0544 3.6948 15.9716 3.32842C15.8889 2.96205 15.688 2.63296 15.3997 2.39176C15.1115 2.15056 14.7518 2.01062 14.3762 1.99345C14.0005 1.97628 13.6296 2.08283 13.3205 2.29673L12.5809 1.42061C12.415 1.2352 12.2119 1.08679 11.9847 0.985044C11.7575 0.883295 11.5115 0.830494 11.2625 0.830081C11.0135 0.829667 10.7673 0.881651 10.5398 0.982645C10.3123 1.08364 10.1086 1.23138 9.9421 1.41623L9.16747 2.28008C8.85915 2.06174 8.48739 1.95093 8.10968 1.96481C7.73197 1.97868 7.36936 2.11646 7.07793 2.35683C6.78651 2.59721 6.58251 2.92678 6.49749 3.29458C6.41247 3.66237 6.45117 4.0479 6.6076 4.39152ZM9.94034 5.60495L8.45249 3.88776C8.79815 4.0541 9.18927 4.10133 9.56467 4.02207C9.94006 3.94281 10.2786 3.74152 10.5272 3.4497L11.2291 2.54029L12.0081 3.46196C12.251 3.74405 12.5786 3.94021 12.9422 4.02121C13.3058 4.1022 13.6859 4.06369 14.0258 3.91141L12.545 5.60495H9.94034ZM1.75454 18.5189C1.75454 13.2727 6.01105 9.02181 11.2641 9.02181C16.5172 9.02181 20.7737 13.2727 20.765 18.5172V18.5189C20.7643 20.3195 20.0478 22.0461 18.7729 23.3194C17.498 24.5926 15.7691 25.3081 13.9661 25.3088H8.55338C6.75043 25.3081 5.02152 24.5926 3.74664 23.3194C2.47177 22.0461 1.75524 20.3195 1.75454 18.5189Z" fill="#240000"/>
</svg>

<svg xmlns="http://www.w3.org/2000/svg" width="23" height="28" fill="none">
  <path fill="#240000" d="M11.264 16.872h.061a2.425 2.425 0 0 1 2.37 2.418 2.426 2.426 0 0 1-1.8 2.34v.98c0 .35-.28.631-.631.631a.629.629 0 0 1-.632-.63v-.982a2.43 2.43 0 0 1-1.798-2.339c0-.35.28-.63.632-.63.35 0 .631.28.631.63 0 .648.518 1.165 1.158 1.165.64 0 1.167-.525 1.167-1.165s-.526-1.165-1.167-1.165h-.061a2.427 2.427 0 0 1-2.36-2.418c0-1.122.763-2.06 1.798-2.34v-.98c0-.351.281-.632.632-.632.35 0 .632.28.632.631v.981a2.427 2.427 0 0 1 1.798 2.34c0 .35-.28.63-.632.63a.629.629 0 0 1-.631-.63c0-.64-.527-1.166-1.167-1.166s-1.167.526-1.167 1.166c0 .64.527 1.165 1.167 1.165Z"/>
  <path fill="#240000" d="m6.608 4.392 2.444 2.856-.264.294C3.758 8.67 0 13.155 0 18.52c0 4.715 3.832 8.542 8.553 8.542h5.413c4.722 0 8.554-3.826 8.554-8.541.008-5.365-3.75-9.851-8.78-10.978a.967.967 0 0 0-.096-.539l2.08-2.377.133-.206a1.71 1.71 0 0 0-.457-2.028 1.717 1.717 0 0 0-2.08-.095l-.74-.876a1.772 1.772 0 0 0-2.638-.005l-.775.864a1.721 1.721 0 0 0-2.67 1.015c-.085.367-.046.753.11 1.097ZM9.94 5.605 8.452 3.888a1.737 1.737 0 0 0 2.075-.438l.702-.91.78.922a1.729 1.729 0 0 0 2.017.45l-1.481 1.693H9.94ZM1.755 18.519c0-5.246 4.256-9.497 9.51-9.497 5.252 0 9.509 4.25 9.5 9.495v.002c0 1.8-.717 3.527-1.992 4.8a6.806 6.806 0 0 1-4.807 1.99H8.553a6.806 6.806 0 0 1-4.806-1.99 6.788 6.788 0 0 1-1.992-4.8Z"/>
</svg>
